X:38
T:Big Mon
C:Bill Monroe
A:Dan Huckabee
N:From John Baldry's "Bluegrass And Old-Time Mandolin" 
N:Transcribed by Mike Stangeland
R:bluegrass
L:1/8
Q:1/4=240
M:4/4
K:A
|: "A"A2 AB cB AF | "G"=GF GA BA GF | "A"EF AB cd ef | "E"=gf ed cB A2 | 
"A"AG AB cB AF | "G"=GF GA BA GF | "A"EF AB cd ef | "E"ed cB "A"A4 :|
|: "A"cd ef e2 AB | cB AF EF EC | B,C E=G FG AB | "E"cB Ac B4 | 
"A"cd ef e2 AB | cB AF EF EC | B,C E=G FG AB | "E"cB AG "A"A4 :| 

